X: 893
T: Alexandra
R: jig
M: 6/8
K: Amajor
|:A2e ecA|cBc ecB|c2e ecA|BGE A2B|
cAe efe|cea gbg|a2e fec|1 Bce c2B:|2 Bce efg||
|:a3 agf|geg age|f3 fef|eac dcB|
A2a agf|edc ABc|d2f fdf|efa geb|
aAa agf|geg age|ef2 fef|acc BcB|
A2e efe|cBc BAF|D2F FDF|EFG ABc||
|:d2d d2d|dBd edB|c3 c2B|Ace aec|
[1 A2e edc|Bcd ege|a3 a3|aga aec:|
[2 A2e edc|Bcd cAF|D2F FDF|EFA GEB||

